X: 862
T: Rogers O'Neill
C: anon.
O: Ireland
B: Francis O'Neill: "The Dance Music of Ireland" (1907) no. 862
R: Hornpipe
Z: Transcribed by Frank Nordberg - http://www.musicaviva.com
F: http://www.musicaviva.com/abc/tunes/ireland/oneill-1001/oneill-1001-086
2.abc
M: C|
L: 1/8
K: A
(cB)|AGAB AEFG|Ac (3(efg) a2(3(efg)|aecA dfgf|(3(efe) (3(dcB) eaec|AGAB A
EFG|Ac (3(efg) a2(3(efg)|
aecA dBGB|A2A2A2::(3(efg)|aece fdBG|AcEc AcEc|BdEd BdEd|ceAe ceAe|aece fd
BG|AcEc BABc|dfed cBAG|A2A2A2:|
(cB)|AGAB cEGB|cABc eAce|fdge afdf|(3(efe) (3(dcB) AGFG|AGAB cEAc|BABc de
fg|agaf edcB|A2A2A2:|
(cd)|efec ABcA|BEGB AGAB|cAce dcBA|GABG Edcd|efec ABcA|BABc defg|agaf edc
B|A2A2A2:|
W:
W:
W: From Musica Viva - http://www.musicaviva.com
W: the Internet center for free sheet music downloads.


